app/img/cart/green.svg

<?xml version="1.0" encoding="UTF-8" standalone="no"?>
<svg width="18px" height="18px" viewBox="0 0 18 18" version="1.1" xmlns="http://www.w3.org/2000/svg" xmlns:xlink="http://www.w3.org/1999/xlink">
    <!-- Generator: Sketch 48.2 (47327) - http://www.bohemiancoding.com/sketch -->
    <title>icn / site-select / cart / green</title>
    <desc>Created with Sketch.</desc>
    <defs>
        <path d="M16.895813,5.44303894 L15.1237336,11.2907369 C14.9899037,11.7284746 14.582967,12.0076016 14.1468686,11.9984101 C14.1280466,11.9994653 14.1090856,12 14.0899997,12 L6.61082458,12 C6.5925761,12 6.57444177,11.9995112 6.55643399,11.998546 C6.12335375,12.0041956 5.7205488,11.7258085 5.58753407,11.2907369 L3.35853212,4 L2,4 C1.44771525,4 1,3.55228475 1,3 C1,2.44771525 1.44771525,2 2,2 L4.04706103,2 C4.10342585,2 4.15870149,2.00466328 4.2125232,2.01362509 C4.5965254,2.05697085 4.93694759,2.32215713 5.0571286,2.71525153 L7.28429972,10 L13.4269679,10 L14.6498907,6 L9,6 C8.44771525,6 8,5.55228475 8,5 C8,4.44771525 8.44771525,4 9,4 L16,4 C16.5522847,4 17,4.27550456 17,4.82778931 C17,4.95004196 16.9581839,5.24047187 16.895813,5.44303894 Z M6.92704432,14 C7.75547144,14 8.42704432,14.6715729 8.42704432,15.5 C8.42704432,16.3284271 7.75547144,17 6.92704432,17 C6.09861719,17 5.42704432,16.3284271 5.42704432,15.5 C5.42704432,14.6715729 6.09861719,14 6.92704432,14 Z M13.5,14 C14.3284271,14 15,14.6715729 15,15.5 C15,16.3284271 14.3284271,17 13.5,17 C12.6715729,17 12,16.3284271 12,15.5 C12,14.6715729 12.6715729,14 13.5,14 Z" id="path-1"></path>
    </defs>
    <g id="Symbols" stroke="none" stroke-width="1" fill="none" fill-rule="evenodd">
        <g id="icn-/-site-select-/-cart-/-green">
            <rect id="ico-placeholder" opacity="0.601096082" x="0" y="0" width="18" height="18"></rect>
            <mask id="mask-2" fill="white">
                <use xlink:href="#path-1"></use>
            </mask>
            <use id="glyph" fill="#4CAF50" xlink:href="#path-1"></use>
        </g>
    </g>
</svg>

<svg width="18" height="18" xmlns="http://www.w3.org/2000/svg" xmlns:xlink="http://www.w3.org/1999/xlink"><defs><path d="M16.896 5.443l-1.772 5.848a1 1 0 0 1-.977.707 1.016 1.016 0 0 1-.057.002H6.61l-.054-.001a1 1 0 0 1-.968-.708L3.358 4H2a1 1 0 1 1 0-2h2.047c.056 0 .112.005.166.014a1 1 0 0 1 .844.701L7.284 10h6.143l1.223-4H9a1 1 0 1 1 0-2h7c.552 0 1 .276 1 .828 0 .122-.042.412-.104.615zM6.927 14a1.5 1.5 0 1 1 0 3 1.5 1.5 0 0 1 0-3zm6.573 0a1.5 1.5 0 1 1 0 3 1.5 1.5 0 0 1 0-3z" id="a"/></defs><g fill="none" fill-rule="evenodd"><path opacity=".601" d="M0 0h18v18H0z"/><use fill="#4CAF50" xlink:href="#a"/></g></svg>
